app/images/icons/payment.svg

<svg xmlns="http://www.w3.org/2000/svg" preserveAspectRatio="xMidYMid" width="53.56" height="52.25"><g fill="#a3bbc8"><path d="M40.132 25.83a.836.836 0 01-.836-.836v-2.041a3.1 3.1 0 01-2.257-2.979 3.098 3.098 0 013.093-3.095 3.097 3.097 0 013.092 3.095 3.1 3.1 0 01-2.257 2.979v2.041a.835.835 0 01-.835.836zm1.42-5.856c0-.783-.637-1.422-1.42-1.422a1.423 1.423 0 000 2.844c.783 0 1.42-.637 1.42-1.422zm6.732 2.353c.462 0 .836.374.836.836v3.186a3.046 3.046 0 01-3.042 3.044H34.184a3.045 3.045 0 01-3.041-3.044V15.602a3.05 3.05 0 012.393-2.975V6.611c0-3.641 2.959-6.603 6.595-6.603 3.637 0 6.595 2.962 6.595 6.603v6.016a3.048 3.048 0 012.394 2.974v4.773a.836.836 0 11-1.672 0v-4.773c0-.755-.614-1.371-1.37-1.371H34.184c-.755 0-1.369.616-1.369 1.371v10.748c0 .756.614 1.371 1.369 1.371h11.894c.756 0 1.37-.615 1.37-1.371v-3.186c0-.462.375-.836.836-.836zm-13.076-9.77h9.846V6.611a4.93 4.93 0 00-4.923-4.929 4.93 4.93 0 00-4.923 4.929v5.946zM5.461 34.818h8.185a.836.836 0 01-.001 1.673H5.461a.836.836 0 110-1.673zm0-3.992h14.271a.837.837 0 010 1.674H5.461a.836.836 0 010-1.674zm23.509-9.881H14.754a.837.837 0 010-1.674H28.97a.836.836 0 010 1.674zm0 7.142H1.679v11.92c0 1.193.971 2.165 2.163 2.165h39.335a2.167 2.167 0 002.162-2.165v-8.266a.837.837 0 011.672 0v8.266a3.84 3.84 0 01-3.834 3.837H3.842a3.84 3.84 0 01-3.834-3.837v-23.62a3.841 3.841 0 013.834-3.839H28.97a.836.836 0 010 1.673H3.842a2.168 2.168 0 00-2.163 2.166v2.884h9.869a.837.837 0 010 1.673H1.679v5.47H28.97a.836.836 0 010 1.673z" fill-rule="evenodd"/><circle cx="43.75" cy="42.45" r="9.81" opacity=".34"/></g></svg>

<svg xmlns="http://www.w3.org/2000/svg" xmlns:xlink="http://www.w3.org/1999/xlink" preserveAspectRatio="xMidYMid" width="53.56" height="52.25" viewBox="0 0 53.56 52.25">
  <defs>
    <style>
      .cls-1, .cls-2 {
        fill: #a3bbc8;
      }

      .cls-1 {
        fill-rule: evenodd;
      }

      .cls-2 {
        opacity: 0.34;
      }
    </style>
  </defs>
  <g>
    <path d="M40.132,25.830 C39.670,25.830 39.296,25.456 39.296,24.994 L39.296,22.953 C37.996,22.587 37.039,21.391 37.039,19.974 C37.039,18.267 38.427,16.879 40.132,16.879 C41.836,16.879 43.224,18.267 43.224,19.974 C43.224,21.391 42.267,22.587 40.967,22.953 L40.967,24.994 C40.967,25.456 40.593,25.830 40.132,25.830 ZM41.552,19.974 C41.552,19.191 40.915,18.552 40.132,18.552 C39.348,18.552 38.711,19.190 38.711,19.974 C38.711,20.759 39.348,21.396 40.132,21.396 C40.915,21.396 41.552,20.759 41.552,19.974 ZM48.284,22.327 C48.746,22.327 49.120,22.701 49.120,23.163 L49.120,26.349 C49.120,28.028 47.755,29.393 46.078,29.393 L34.184,29.393 C32.507,29.393 31.143,28.028 31.143,26.349 L31.143,15.602 C31.143,14.146 32.170,12.925 33.536,12.627 L33.536,6.611 C33.536,2.970 36.495,0.008 40.131,0.008 C43.768,0.008 46.726,2.970 46.726,6.611 L46.726,12.627 C48.093,12.925 49.120,14.145 49.120,15.601 L49.120,20.374 C49.120,20.836 48.746,21.211 48.284,21.211 C47.823,21.211 47.448,20.836 47.448,20.374 L47.448,15.601 C47.448,14.846 46.834,14.230 46.078,14.230 L34.184,14.230 C33.429,14.230 32.815,14.846 32.815,15.601 L32.815,26.349 C32.815,27.105 33.429,27.720 34.184,27.720 L46.078,27.720 C46.834,27.720 47.448,27.105 47.448,26.349 L47.448,23.163 C47.448,22.701 47.823,22.327 48.284,22.327 ZM35.208,12.557 L45.054,12.557 L45.054,6.611 C45.054,3.892 42.846,1.682 40.131,1.682 C37.416,1.682 35.208,3.892 35.208,6.611 L35.208,12.557 ZM5.461,34.818 L13.646,34.818 C14.107,34.818 14.481,35.193 14.481,35.654 C14.481,36.117 14.107,36.491 13.645,36.491 L5.461,36.491 C4.999,36.491 4.625,36.117 4.625,35.654 C4.625,35.193 4.999,34.818 5.461,34.818 ZM5.461,30.826 L19.732,30.826 C20.193,30.826 20.568,31.201 20.568,31.663 C20.568,32.125 20.193,32.500 19.732,32.500 L5.461,32.500 C4.999,32.500 4.625,32.125 4.625,31.663 C4.625,31.201 4.999,30.826 5.461,30.826 ZM28.970,20.945 L14.754,20.945 C14.293,20.945 13.918,20.570 13.918,20.108 C13.918,19.646 14.293,19.271 14.754,19.271 L28.970,19.271 C29.432,19.271 29.806,19.646 29.806,20.108 C29.806,20.570 29.432,20.945 28.970,20.945 ZM28.970,28.087 L1.679,28.087 L1.679,40.007 C1.679,41.200 2.650,42.172 3.842,42.172 L43.177,42.172 C44.369,42.172 45.339,41.200 45.339,40.007 L45.339,31.741 C45.339,31.280 45.714,30.905 46.175,30.905 C46.637,30.905 47.011,31.280 47.011,31.741 L47.011,40.007 C47.011,42.123 45.291,43.844 43.177,43.844 L3.842,43.844 C1.728,43.844 0.008,42.122 0.008,40.007 L0.008,16.387 C0.008,14.270 1.728,12.549 3.842,12.548 L28.970,12.548 C29.432,12.548 29.806,12.923 29.806,13.384 C29.806,13.846 29.432,14.221 28.970,14.221 L3.842,14.221 C2.650,14.221 1.679,15.193 1.679,16.387 L1.679,19.271 L11.548,19.271 C12.009,19.271 12.384,19.646 12.384,20.108 C12.384,20.570 12.009,20.944 11.548,20.944 L1.679,20.944 L1.679,26.414 L28.970,26.414 C29.432,26.414 29.806,26.789 29.806,27.251 C29.806,27.713 29.432,28.087 28.970,28.087 Z" class="cls-1"/>
    <circle cx="43.75" cy="42.45" r="9.81" class="cls-2"/>
  </g>
</svg>
